!!!!SEGMENT: pl-wtm--r-1391_stefani-jozef--mazur.krn
!!!cenid: 18xx:2415
!!!COM: Stefani, Józef
!!!COM-rismid: pe30024097
!!!CDT: 1800/04/16-1876/03/19
!!!CNT: Polish
!!!OTL: Mazur
!!!PDT:
!!!AGN: Secular; Mazurka
!!!SMS-siglum: PL-Wtm
!!!SMS-shelfmark: R 1391
!!!SMS-shelfwork: W
!!!SMS-variant:
!!!SMS-altvar:
!!!NIFC-rismid: 1001117320
!!!URL-scan: http://repozytorium.nifc.pl/skany/pl-wtm-nut--r1391
!!!ONB-nifc: UWAGA: razem z introdukcją
**kern	**kern	**dynam
*part1	*part1	*part1
*staff2	*staff1	*
*Iempty	*Iforte	*
*	*I"Fortepian	*
*>[A,B,B,C,C,D,D,E,E,B,B,C,C]	*>[A,B,B,C,C,D,D,E,E,B,B,C,C]	*>[A,B,B,C,C,D,D,E,E,B,B,C,C]
*>A	*>A	*>A
*clefF4	*clefG2	*
*k[]	*k[]	*
*c:	*c:	*
*M3/8	*M3/8	*
*all\right	*all\right	*
=1	=1	=1
!	!LO:TX:a:i:t=Wstęp. do Mazura	!LO:DY:rj
8A-XL 8AA-X\	8cccL 8aa-X 8ee-X 8cc'^<\	f
8e-XJ 8c 8A-X\	8ccJ 8a-X'^<\	.
8r	8r	.
=2	=2	=2
8GL 8GG\	8cccL 8gg 8ee-X 8cc'^<\	.
8e-XJ 8c 8G\	8ee-J 8cc 8g'^<\	.
8r	8r	.
=3	=3	=3
8F#XL 8FF#X\	8cccL 8aan 8ee-X 8cc'^<\	.
8e-XJ 8c 8A 8F#\	8ee-J 8cc 8a'^<\	.
8r	8r	.
*clefG2	*	*
=4	=4	=4
!LO:TUP:b:problem:klamra łukowa, łuczek zamiast numeru	!LO:TUP:a:problem:klamra łukowa	!LO:DY:rj
24B/LL	24b\LL	p
24c/	24cc\	.
24d/JJ	24dd\JJ	.
8G/	8g/	.
8r	8r	.
!!LO:LB:g=original
=5	=5	=5
!LO:TUP:b:problem:klamra łukowa, łuczek zamiast numeru	!LO:TUP:a:problem:klamra łukowa, łuczek zamiast numeru	!
24d/LL	24dd\LL	.
24e-X/	24ee-X\	.
24f/JJ	24ff\JJ	.
!	!	!LO:HP:t=cresc
8B/	8b\	<
8r	8r	.
=6	=6	=6
!LO:TUP:b:problem:klamra łukowa, łuczek zamiast numeru	!LO:TUP:a:problem:klamra łukowa, łuczek zamiast numeru	!LO:DY:t=for
24f/LL	24ff\LL	f
24g/	24gg\	.
24a-X/JJ	24aa-X\JJ	.
8d/	8dd\	.
8r	8r	.
=7	=7	=7
!LO:TUP:b:problem:klamra łukowa, łuczek zamiast numeru	!LO:TUP:a:problem:klamra łukowa, łuczek zamiast numeru	!LO:DY:rj
24d/LL	24dd\LL	p
24e-X/	24ee-X\	.
24f/JJ	24ff\JJ	.
8B/	8b\	.
8r	16r	.
.	16gg 16g\	.
=8	=8	=8
!	!LO:TX:b:i:t=ritard.	!
4.r	(8ggL 8g'\	.
.	8gg 8g'\	.
.	8ggJ 8g'\)	.
!!LO:LB:g=original
=9||	=9||	=9||
*>B	*>B	*>B
*clefF4	*	*
*M3/8	*M3/8	*
!	!LO:TX:a:i:t=Mazur	!LO:DY:rj
.	(8qff/	f
16C 16CC/	16.ee\LL)	.
16r	.	.
.	32dd|\JJk	.
8eL 8c 8G\	8ee|\L	.
8eJ 8c 8G\	8cc|\J	.
=10	=10	=10
16BB 16BBB/	16gg|\	.
16r	16r	.
4d 4B 4G\	4dd 4g^/	.
=11	=11	=11
!	!	!LO:DY:rj
.	(8qgg/	p
16A 16AA\	16.ff\LL)	.
16r	.	.
.	32ee|\JJk	.
8fL 8c 8A\	8ff\L	.
8fJ 8c 8A\	(16aa\L	.
.	16gg\JJ)	.
=12	=12	=12
16G 16GG/	16ff\	.
16r	16r	.
4e 4c 4G\	4ee\	.
!!LO:LB:g=original
=13	=13	=13
!	!	!LO:DY:rj
.	(8qqee/	mf
!	!	!
16F 16FF/	16.dd\LL)	.
16r	.	.
.	32cc#X|\JJk	.
8dL 8B 8G\	8dd|\L	.
8dJ 8B 8G\	8g|\J	.
=14	=14	=14
16E 16EE/	(16aa\LL	.
16r	16gg\JJ)	.
!	!	!LO:DY:rj
8A 8E 8AA\	8ccc 8ee 8cc\	sf
8r	8r	.
=15	=15	=15
!	!	!LO:DY:rj
16D 16DD/	16.ccc|\LL	f
16r	.	.
.	32bb|\JJk	.
.	(8qbb/	.
8cL 8A 8D\	16.aa\LL)	.
.	32gg|\JJk	.
8cJ 8A 8D\	16.ff#X|\LL	.
.	32aa|\JJk	.
=16	=16	=16
16B 16G\	16gg\	.
16r	16r	.
8G 8GG/	8ggg 8bb 8gg\	.
8r	8r	.
!!LO:LB:g=original
=17:|!|:	=17:|!|:	=17:|!|:
*>C	*>C	*>C
!	!	!LO:DY:rj
8G 8GG\	16bLL 16g|/	p
.	32r	.
.	(32cc#XJJk 32a#X/	.
16f 16d 16G\	16ddLL 16b\)	.
16r	32r	.
.	(32eeJJk 32cc#X\	.
16f 16d 16G\	16ffLL 16dd\)	.
16r	32r	.
.	(32ff#XJJk 32dd#X\	.
=18	=18	=18
16C 16CC/	16aa 16ffn\)	.
16r	16r	.
4e 4c 4G\	4gg 4ee^<\	.
=19	=19	=19
!	!LO:TUP:a:problem:klamra łukowa, łuczek zamiast numeru	!LO:DY:rj
8G 8GG\	24ffLL 24dd\	f
.	24gg 24ee\	.
.	24ffJJ 24dd\	.
8fL 8d 8B 8G\	8dddL 8ff'\	.
8fJ 8d 8B 8G\	8ffJ 8dd'\	.
=20	=20	=20
!	!LO:TUP:a:problem:klamra łukowa, łuczek zamiast numeru	!
8c 8C\	24eeLL 24cc\	.
.	24ff 24dd\	.
.	24eeJJ 24cc\	.
8eL 8c 8G\	8cccL 8ee'\	.
8eJ 8c 8G\	8eeJ 8cc'\	.
!!LO:LB:g=original
=21	=21	=21
!	!	!LO:DY:rj
8G 8GG\	16bLL 16g/	p
.	32r	.
.	32cc#XJJk 32a#X/	.
16f 16d 16G\	16ddLL 16b\	.
16r	32r	.
.	32eeJJk 32cc#X\	.
16f 16d 16G\	16ffLL 16dd\	.
16r	32r	.
.	32ff#XJJk 32dd#X\	.
=22	=22	=22
16C 16CC/	(16aaLL 16ffn\	.
16r	16ggJJ 16ee\)	.
!	!	!LO:DY:rj
8e-X 8c 8A 8F#X\	8ccc 8ee-X 8cc'\	sf
8r	8r	.
.	.	f
=23	=23	=23
!	!LO:TUP:a:problem:łuczek zamiast numeru	!
16G 16GG\	(24gg\LL	.
.	24ff#X\	.
16r	.	.
.	24aa\JJ	.
!	!LO:TUP:a:problem:łuczek zamiast numeru	!
8eL 8c 8G\	24gg\LL	.
.	24ffn\	.
.	24ee\JJ	.
!	!LO:TUP:a:problem:łuczek zamiast numeru	!
8fJ 8d 8G\	24dd\LL	.
.	24a\	.
.	24b\JJ)	.
=24	=24	=24
16e 16c\	16cc\	.
16r	16r	.
8c 8C\	8ccc 8ee 8cc^<\	.
8r	8r	.
!!LO:PB:g=original
=25:|!	=25:|!	=25:|!
*>D	*>D	*>D
*k[b-]	*k[b-]	*
*F:	*F:	*
*M3/8	*M3/8	*
!	!LO:TX:a:i:t=Trio.	!
.	(<8qdd 8qb-/	.
16F 16FF\	16.ccLL 16.a|\)	.
16r	.	.
.	32bnJJk 32g#X|\	.
8cL 8A 8F\	8ccL 8a|\	.
8cJ 8A 8F\	8ffJ 8cc 8a|\	.
=26	=26	=26
16C 16CC/	(16aaLL 16ff\	.
16r	16ggJJ 16ee\)	.
!	!	!LO:DY:rj
8c 8G 8E 8C\	8ccc 8ee 8cc\	sf
8r	8r	.
=27	=27	=27
.	(<8qdd 8qb-/	.
16F 16FF\	16.ccLL 16.a\)	.
16r	.	.
.	32bnJJk 32g#X|\	.
8cL 8A 8F\	8ccL 8a|\	.
8cJ 8A 8F\	8aaJ 8ff 8cc|\	.
!!LO:LB:g=original
=28	=28	=28
*	*Xtuplet	*
16C 16CC/	(24ff#X\LL	.
.	24gg\)	.
16r	.	.
.	24ee'\JJ	.
8c 8G 8E 8C\	4cc\	.
8r	.	.
=29	=29	=29
*	*tuplet	*
!	!LO:TUP:a:problem:łuczek zamiast numeru	!
16G 16GG\	(24ffn\LL	.
.	24gg\	.
16r	.	.
.	24ff\JJ	.
!	!LO:TUP:a:problem:łuczek zamiast numeru	!
8fL 8d 8G\	24ee\LL	.
.	24dd\	.
.	24cc\JJ)	.
16fJk 16d 16G\	16bn\	.
16r	16r	.
=30	=30	=30
!	!LO:TUP:a:problem:łuczek zamiast numeru	!
16C 16CC/	(24gg\LL	.
.	24aa\	.
16r	.	.
.	24gg\JJ	.
!	!LO:TUP:a:problem:łuczek zamiast numeru	!
8eL 8c 8G\	24ff\LL	.
.	24ee\	.
.	24dd\JJ	.
16eJk 16c 16G\	16cc\)	.
16r	16r	.
.	.	f
=31	=31	=31
16.FLL 16.FF/	16.aLL 16.f'/	.
32BBnJJk 32BBBn/	32ddJJk 32a-X 32f'/	.
8CL 8CC/	8ccL 8an 8f'/	.
8CJ 8CC/	8eeJ 8b-X 8g|/	.
!!LO:LB:g=original
=32	=32	=32
*	*^	*
16F 16FF/	(32gg/KLL	16a\	.
.	16ff/JJ)	.	.
16r	.	16rg	.
.	32r	.	.
8F 8FF/	8ff 8a\	8rcyy	.
8r	8r	8rcyy	.
*	*v	*v	*
=33:|!|:	=33:|!|:	=33:|!|:
*>E	*>E	*>E
!	!	!LO:DY:rj
8DL 8AA 8DD/	16.a|\LL	mf
.	32dd|\JJk	.
8D 8AA 8DD/	8ff|\L	.
8DJ 8AA 8DD/	(16ee\L	.
.	16dd\JJ)	.
=34	=34	=34
*rep	*Xtuplet	*
8DL 8AA 8DD/	(24dd#X\LL	.
.	24ee\)	.
.	24cc#X'\JJ	.
8D 8AA 8DD/	4a/	.
8DJ 8AA 8DD/	.	.
*Xrep	*	*
=35	=35	=35
*rep	*	*
8DL 8AA 8DD/	16.a\LL	.
.	32dd\JJk	.
8D 8AA 8DD/	8ff\L	.
8DJ 8AA 8DD/	16ee\L	.
.	16dd\JJ	.
*Xrep	*	*
!!LO:LB:g=original
=36	=36	=36
*tremolo	*	*
8DL 8AA 8DD/	(24dd#X\LL	.
.	24ee\)	.
.	24cc#X'\JJ	.
8D 8AA 8DD/	4a'/	.
8DJ 8AA 8DD/	.	.
=37	=37	=37
*rep	*	*
8DL 8AA 8DD/	16.a\LL	.
.	32dd\JJk	.
8D 8AA 8DD/	8ff\L	.
8DJ 8AA 8DD/	16ee\L	.
.	16dd\JJ	.
*Xrep	*	*
*Xtremolo	*	*
=38	=38	=38
8E 8EE/	(24ff#X\LL	.
.	24gg\)	.
.	24ee'\JJ	.
8cL 8G 8E\	8cc\L	.
8cJ 8G 8E\	8b-X\J	.
=39	=39	=39
!LO:TX:t=P:problem:mixed beam	!	!LO:DY:rj
16.cLL 16.A 16.F\	16.a/LL	f
32BBnJJk 32BBBn/	32ddJJk 32a-X 32f/	.
8CL 8CC/	8ccL 8an 8f/	.
8CJ 8CC/	8eeJ 8b-X 8g/	.
!!LO:LB:g=original
=40	=40	=40
*	*^	*
16F 16FF/	(32gg/KLL	16a\	.
.	16ff/JJ)	.	.
16r	.	16r	.
.	32r	.	.
8F 8FF/	8ff 8a\	8ryy	.
!LO:TX:a:i:t=da capo Mazur\nal fine.	!LO:TX:t=P:problem:fermata na kresce taktowej	!	!
8r	8r;	8ryy	.
*	*v	*v	*
=:|!	=:|!	=:|!
*-	*-	*-
!!!system-decoration: {(s1,s2)}
!!!RDF**kern: > = above
!!!RDF**kern: < = below
!!!RDF**kern: | = vertical stroke
!!!ENC: Andrzej Kubiczek
!!!END: 2021-06-25
!!!ENC: Mateusz Solarz
!!!END: 2021-06-15
